X: 16
T: Ode to Bloody Feet
C: Armand Aromin
H: 11/9/04
M: 6/8
L: 1/8
R: Jig
K: Amaj
ed |: cAA BAA | FAA EAA | cAA BAB | d3 e2 d |
cAA BAA | FAA EAA | cAA BcB | A3 Aed :|
cAA eAA | cAA edc | dBB fBB | dBB fed |
cAA eAA | cAA efg | aga ecA | BcB Aed :|
